X:1
T:Beiaard
C:Trad.
O:Vlaanderen
Z:Bart Vanhaverbeke 
P:(AABB) x3 A
L:1/8
M:2/4
K:G
P:Voorspel
"G"BB G2 | "D"A/G/F/E/ D2 |"D7"d>c BA | "G"GG G z |]
P:A
"G"BB G2 | "D"A/G/F/E/ D2 | "D7"D>D EF | "G" GB d2 | "G"BB G2 | "D"A/G/F/E/ D2 | "D7"D>D EF | "G" GB G2 :|]
P:B
K:D
"D"Ad cB | AF A2 | "A7"E>F GB | "D"A/B/A/G/ F2 | "D"Ad cB | AF A2 | "A7"E>G FE | "D"DD D z :|]
